dist/img/blog/18.svg

<svg width="25" height="25" viewBox="0 0 25 25" fill="none" xmlns="http://www.w3.org/2000/svg">
<path d="M17.923 20.8972C17.6923 20.4613 17.3076 19.5638 17.2051 19.1024C16.9999 18.051 16.5385 15.1538 16.4103 14.1024C15.641 7.23066 8.07699 7.23066 7.53853 14.3331C7.41029 16.0511 6.97443 17.6151 6.41029 19.2818C6.15381 20.0511 5 21.9484 5 21.9484C5 21.9484 5.17957 22.3073 5.79482 22.6918C6.38451 23.0764 6.97439 23.2304 6.97439 23.2304C6.97439 23.2304 7.87191 21.7176 8.15396 21.2304C8.97455 19.8459 9.05148 18.7177 9.2822 17.1278C9.33353 18.1533 9.46177 19.1022 9.23087 20.2816C8.97439 21.5123 8.0513 23.5891 8.0513 23.5891L8.84612 23.743C8.84612 23.743 9.15375 23.3071 9.38466 22.6405C9.61539 21.9739 9.6923 21.743 9.6923 21.743L9.87187 23.7943C9.87187 23.7943 10.8463 24.3071 13.4873 23.9739C16.1283 23.6405 16.9744 23.1277 16.9744 23.1277C16.9744 23.1279 16.0514 21.0766 16.0258 19.9483C16.3334 20.6918 16.4616 21.1791 16.9744 21.7945C17.1796 22.0252 17.5898 22.538 17.9231 22.538C18.1538 22.538 18.7692 22.1021 19 21.9739C18.6924 21.5638 18.2052 21.3844 17.9231 20.8971L17.923 20.8972Z" fill="#202125"/>
<path d="M12.0257 8.48702C13.4102 8.5126 14.718 9.66659 14.718 9.66659C14.718 9.66659 14.5129 8.12805 13.1539 7.53841L13.0768 1L10.9231 1.33339C10.9231 1.51296 10.8975 6.1795 10.8975 7.48718C9.28207 7.99995 9.38473 9.56404 9.38473 9.56404C9.38473 9.56422 10.641 8.43598 12.0257 8.48713L12.0257 8.48702Z" fill="#202125"/>
</svg>

<svg width="25" height="25" viewBox="0 0 25 25" fill="none" xmlns="http://www.w3.org/2000/svg"><path d="M17.923 20.897c-.23-.436-.615-1.333-.718-1.795a112.367 112.367 0 01-.795-5c-.769-6.871-8.333-6.871-8.871.231-.129 1.718-.565 3.282-1.129 4.949-.256.77-1.41 2.666-1.41 2.666s.18.36.795.744c.59.384 1.18.538 1.18.538s.897-1.512 1.179-2c.82-1.384.897-2.512 1.128-4.102.052 1.025.18 1.974-.051 3.154-.257 1.23-1.18 3.307-1.18 3.307l.795.154s.308-.436.539-1.102c.23-.667.307-.898.307-.898l.18 2.051s.974.513 3.615.18c2.641-.334 3.487-.846 3.487-.846s-.923-2.051-.948-3.18c.307.744.436 1.231.948 1.846.206.231.616.744.95.744.23 0 .845-.436 1.076-.564-.308-.41-.795-.59-1.077-1.077z" fill="#202125"/><path d="M12.026 8.487c1.384.026 2.692 1.18 2.692 1.18s-.205-1.539-1.564-2.129L13.077 1l-2.154.333c0 .18-.025 4.846-.025 6.154C9.282 8 9.385 9.564 9.385 9.564s1.256-1.128 2.64-1.077z" fill="#202125"/></svg>
